X:1017
T:no name
R:reel
S:concert recording of New Road
Z:id:hn-reel-1017
M:C|
L:1/8
K:Dmix
D2DE FDFA | GFGA BGAF | D2DE FGAc | BdcA GBAF |
D2DE FDFA | ~G3A BGAF | d^cde fdeg |1 fdcA GBAF :|2 fdcA GBde ||
|: fdde fgaf | gfga (3bag ag | fdde fgag | fdcA GBde |
fdde fgaf | gfga bgag | bg~g2 bgag |1 fdcA GBde :|2 fdcA GBAF ||

